;FLAVOR:Marlin
;TIME:2814
;Filament used: 2.30768m
;Layer height: 0.2
;MINX:65.352
;MINY:84.85
;MINZ:0.2
;MAXX:144.641
;MAXY:125.15
;MAXZ:6
;Generated with Cura_SteamEngine 4.3.0
M140 S65
M105
M190 S65
M104 S220
M105
M109 S220
M82 ;absolute extrusion mode
G21 ;metric values
G90 ;absolute positioning
M82 ;set extruder to absolute mode
M107 ;start with the fan off
G28 X0 Y0 ;move X/Y to min endstops
G28 Z0 ;move Z to min endstops
G1 Z15.0 F100 ;move the platform down 15mm
G92 E0 ;zero the extruded length
G1 F200 E3 ;extrude 3mm of feed stock
G92 E0 ;zero the extruded length again
G1 F100
M117 Printing...
G5
G92 E0
G92 E0
G1 F2400 E-6
;LAYER_COUNT:30
;LAYER:0
M106 S255
M204 S3000
M205 X10 Y10
G1 F600 Z0.275
G0 F3000 X69.063 Y86.669 Z0.275
M204 S1800
M205 X8 Y8
;TYPE:SKIRT
G1 F600 Z0.2
G1 F2400 E0
G1 X69.582 Y86.291 E0.0299
G1 X69.834 Y86.126 E0.04392
G1 X70.548 Y85.721 E0.08215
G1 X70.779 Y85.609 E0.0941
G1 X71.439 Y85.334 E0.12739
G1 X71.813 Y85.214 E0.14568
G1 X72.058 Y85.144 E0.15755
G1 X72.605 Y85.014 E0.18373
G1 X72.854 Y84.966 E0.19554
G1 X73.562 Y84.87 E0.2288
G1 X74.07 Y84.85 E0.25248
G1 X75.399 Y84.851 E0.31436
G1 X75.555 Y84.853 E0.32163
G1 X134.928 Y86.346 E3.08716
G1 X134.935 Y86.346 E3.08748
G1 X135.809 Y86.369 E3.12819
G1 X135.891 Y86.372 E3.13201
G1 X136.555 Y86.398 E3.16296
G1 X137.105 Y86.443 E3.18865
G1 X137.51 Y86.494 E3.20766
G1 X138.213 Y86.623 E3.24094
G1 X138.739 Y86.774 E3.26642
G1 X139.107 Y86.897 E3.28449
G1 X139.771 Y87.161 E3.31776
G1 X140.248 Y87.407 E3.34275
G1 X140.583 Y87.598 E3.36071
G1 X141.184 Y87.987 E3.39405
G1 X141.565 Y88.288 E3.41665
G1 X141.755 Y88.45 E3.42828
G1 X142.292 Y88.964 E3.46289
G1 X142.514 Y89.203 E3.47808
G1 X142.977 Y89.762 E3.51188
G1 X143.106 Y89.937 E3.52201
G1 X143.497 Y90.535 E3.55527
G1 X143.668 Y90.851 E3.57201
G1 X143.831 Y91.174 E3.58885
G1 X144.117 Y91.829 E3.62213
G1 X144.233 Y92.171 E3.63895
G1 X144.295 Y92.372 E3.64874
G1 X144.43 Y92.887 E3.67353
G1 X144.489 Y93.156 E3.68636
G1 X144.603 Y93.862 E3.71966
G1 X144.638 Y94.512 E3.74997
G1 X144.641 Y95.794 E3.80966
G1 X144.639 Y95.97 E3.81786
G1 X144.13 Y116.233 E4.76169
G1 X144.127 Y116.32 E4.76574
G1 X144.098 Y117.067 E4.80055
G1 X144.055 Y117.603 E4.82559
G1 X144.006 Y118 E4.84421
G1 X143.879 Y118.704 E4.87753
G1 X143.741 Y119.193 E4.90118
G1 X143.677 Y119.39 E4.91083
G1 X143.609 Y119.587 E4.92053
G1 X143.54 Y119.778 E4.92999
G1 X143.26 Y120.437 E4.96333
G1 X143.076 Y120.783 E4.98158
G1 X142.894 Y121.101 E4.99864
G1 X142.504 Y121.701 E5.03196
G1 X142.183 Y122.104 E5.05595
G1 X141.924 Y122.404 E5.07441
G1 X141.427 Y122.919 E5.10773
G1 X141.052 Y123.24 E5.13072
G1 X140.884 Y123.373 E5.1407
G1 X140.418 Y123.709 E5.16745
G1 X140.166 Y123.874 E5.18147
G1 X139.452 Y124.279 E5.2197
G1 X139.221 Y124.391 E5.23165
G1 X138.561 Y124.666 E5.26494
G1 X138.187 Y124.786 E5.28323
G1 X137.942 Y124.856 E5.2951
G1 X137.395 Y124.986 E5.32128
G1 X137.146 Y125.034 E5.33309
G1 X136.438 Y125.13 E5.36635
G1 X135.93 Y125.15 E5.39003
G1 X134.601 Y125.149 E5.45191
G1 X134.445 Y125.147 E5.45918
G1 X75.072 Y123.654 E8.22471
G1 X75.065 Y123.654 E8.22503
G1 X74.191 Y123.631 E8.26574
G1 X74.109 Y123.628 E8.26956
G1 X73.445 Y123.602 E8.30051
G1 X72.895 Y123.557 E8.3262
G1 X72.49 Y123.506 E8.34521
G1 X71.787 Y123.377 E8.37849
G1 X71.261 Y123.226 E8.40397
G1 X70.893 Y123.103 E8.42204
G1 X70.229 Y122.839 E8.45531
G1 X69.748 Y122.591 E8.48051
G1 X69.41 Y122.398 E8.49864
G1 X68.81 Y122.009 E8.53193
G1 X68.423 Y121.703 E8.55491
G1 X68.236 Y121.543 E8.56636
G1 X67.709 Y121.036 E8.60042
G1 X67.486 Y120.796 E8.61567
G1 X67.039 Y120.26 E8.64817
G1 X66.917 Y120.096 E8.65769
G1 X66.523 Y119.499 E8.69099
G1 X66.338 Y119.158 E8.70906
G1 X66.162 Y118.809 E8.72726
G1 X65.876 Y118.153 E8.76058
G1 X65.708 Y117.634 E8.78598
G1 X65.602 Y117.251 E8.80449
G1 X65.45 Y116.552 E8.8378
G1 X65.389 Y116.041 E8.86176
G1 X65.371 Y115.81 E8.87255
G1 X65.352 Y115.274 E8.89752
G1 X65.359 Y114.114 E8.95154
G1 X65.361 Y113.992 E8.95722
G1 X65.87 Y93.749 E9.90012
G1 X65.873 Y93.657 E9.9044
G1 X65.902 Y92.925 E9.93852
G1 X65.947 Y92.38 E9.96398
G1 X65.997 Y91.982 E9.98266
G1 X66.126 Y91.279 E10.01594
G1 X66.26 Y90.802 E10.03901
G1 X66.325 Y90.602 E10.0488
G1 X66.426 Y90.314 E10.06301
G1 X66.507 Y90.1 E10.07367
G1 X66.967 Y89.138 E10.12332
G1 X67.137 Y88.847 E10.13901
G1 X67.532 Y88.25 E10.17235
G1 X67.819 Y87.892 E10.19371
G1 X68.066 Y87.606 E10.21131
G1 X68.563 Y87.091 E10.24463
G1 X68.885 Y86.813 E10.26444
G1 X69.063 Y86.669 E10.2751
M204 S3000
M205 X10 Y10
G0 F3000 X69.415 Y87.105
M204 S1800
M205 X8 Y8
G1 F2400 X69.889 Y86.759 E10.30243
G1 X70.141 Y86.594 E10.31646
G1 X70.792 Y86.225 E10.3513
G1 X71.023 Y86.113 E10.36325
G1 X71.967 Y85.753 E10.4103
G1 X72.212 Y85.683 E10.42216
G1 X72.711 Y85.564 E10.44605
G1 X72.96 Y85.516 E10.45786
G1 X73.637 Y85.426 E10.48966
G1 X74.069 Y85.41 E10.50979
G1 X75.398 Y85.411 E10.57167
G1 X75.541 Y85.413 E10.57833
G1 X134.914 Y86.906 E13.34386
G1 X134.921 Y86.906 E13.34419
G1 X135.795 Y86.929 E13.3849
G1 X135.869 Y86.931 E13.38835
G1 X136.533 Y86.957 E13.41929
G1 X137.035 Y86.999 E13.44275
G1 X137.44 Y87.05 E13.46175
G1 X138.111 Y87.175 E13.49353
G1 X138.561 Y87.305 E13.51535
G1 X138.929 Y87.428 E13.53341
G1 X139.563 Y87.682 E13.56522
G1 X139.971 Y87.894 E13.58663
G1 X140.306 Y88.085 E13.60458
G1 X140.878 Y88.457 E13.63635
G1 X141.202 Y88.714 E13.65561
G1 X141.392 Y88.876 E13.66724
G1 X141.882 Y89.345 E13.69882
G1 X142.104 Y89.584 E13.71401
G1 X142.526 Y90.094 E13.74483
G1 X142.655 Y90.269 E13.75496
G1 X143.168 Y91.103 E13.80055
G1 X143.331 Y91.426 E13.8174
G1 X143.698 Y92.336 E13.86309
G1 X143.76 Y92.537 E13.87288
G1 X143.883 Y93.007 E13.8955
G1 X143.942 Y93.276 E13.90833
G1 X144.049 Y93.951 E13.94015
G1 X144.078 Y94.513 E13.96635
G1 X144.081 Y95.795 E14.02605
G1 X144.079 Y95.956 E14.03355
G1 X143.57 Y116.219 E14.97737
G1 X143.568 Y116.299 E14.9811
G1 X143.539 Y117.046 E15.01591
G1 X143.499 Y117.534 E15.03871
G1 X143.45 Y117.931 E15.05734
G1 X143.327 Y118.603 E15.08915
G1 X143.208 Y119.02 E15.10934
G1 X143.144 Y119.217 E15.11898
G1 X143.083 Y119.397 E15.12783
G1 X143.014 Y119.588 E15.13729
G1 X142.59 Y120.505 E15.18433
G1 X142.408 Y120.823 E15.20139
G1 X142.034 Y121.395 E15.23322
G1 X141.76 Y121.738 E15.25366
G1 X141.501 Y122.038 E15.27211
G1 X141.025 Y122.529 E15.30396
G1 X140.705 Y122.801 E15.32351
G1 X140.537 Y122.934 E15.33349
G1 X140.111 Y123.241 E15.35794
G1 X139.859 Y123.406 E15.37197
G1 X139.208 Y123.775 E15.40681
G1 X138.977 Y123.887 E15.41877
G1 X138.033 Y124.247 E15.46581
G1 X137.788 Y124.317 E15.47767
G1 X137.289 Y124.436 E15.50156
G1 X137.04 Y124.484 E15.51337
G1 X136.363 Y124.574 E15.54517
G1 X135.931 Y124.59 E15.5653
G1 X134.602 Y124.589 E15.62718
G1 X134.459 Y124.587 E15.63384
G1 X75.086 Y123.094 E18.39937
G1 X75.079 Y123.094 E18.3997
G1 X74.205 Y123.071 E18.44041
G1 X74.131 Y123.069 E18.44386
G1 X73.467 Y123.043 E18.4748
G1 X72.965 Y123.001 E18.49826
G1 X72.56 Y122.95 E18.51726
G1 X71.889 Y122.825 E18.54905
G1 X71.439 Y122.695 E18.57086
G1 X71.071 Y122.572 E18.58892
G1 X70.437 Y122.318 E18.62073
G1 X70.026 Y122.104 E18.6423
G1 X69.688 Y121.911 E18.66043
G1 X69.116 Y121.539 E18.6922
G1 X68.787 Y121.277 E18.71178
G1 X68.6 Y121.117 E18.72324
G1 X68.119 Y120.655 E18.7543
G1 X67.896 Y120.415 E18.76955
G1 X67.488 Y119.926 E18.79921
G1 X67.366 Y119.762 E18.80873
G1 X66.838 Y118.906 E18.85556
G1 X66.662 Y118.557 E18.87376
G1 X66.39 Y117.93 E18.90558
G1 X66.248 Y117.485 E18.92733
G1 X66.142 Y117.102 E18.94584
G1 X65.998 Y116.434 E18.97766
G1 X65.948 Y115.998 E18.99809
G1 X65.93 Y115.767 E19.00888
G1 X65.912 Y115.278 E19.03167
G1 X65.919 Y114.118 E19.08568
G1 X65.921 Y114.006 E19.0909
G1 X66.43 Y93.763 E20.03379
G1 X66.433 Y93.679 E20.03771
G1 X66.462 Y92.947 E20.07182
G1 X66.503 Y92.45 E20.09504
G1 X66.553 Y92.052 E20.11372
G1 X66.677 Y91.38 E20.14554
G1 X66.793 Y90.975 E20.16516
G1 X66.858 Y90.775 E20.17495
G1 X66.95 Y90.513 E20.18788
G1 X67.031 Y90.299 E20.19853
G1 X67.45 Y89.42 E20.24387
G1 X67.62 Y89.129 E20.25957
G1 X67.999 Y88.56 E20.2914
G1 X68.243 Y88.258 E20.30948
G1 X68.49 Y87.972 E20.32708
G1 X68.966 Y87.482 E20.35889
G1 X69.237 Y87.249 E20.37553
G1 X69.415 Y87.105 E20.38619
M204 S3000
M205 X10 Y10
G0 F3000 X69.767 Y87.54
M204 S1800
M205 X8 Y8
G1 F2400 X70.196 Y87.228 E20.41089
G1 X70.448 Y87.063 E20.42492
G1 X71.036 Y86.729 E20.4564
G1 X71.267 Y86.617 E20.46836
G1 X72.12 Y86.291 E20.51088
G1 X72.365 Y86.221 E20.52274
G1 X72.817 Y86.113 E20.54438
G1 X73.066 Y86.065 E20.55619
G1 X73.71 Y85.982 E20.58643
G1 X74.069 Y85.97 E20.60315
G1 X75.398 Y85.971 E20.66504
G1 X75.527 Y85.973 E20.67104
G1 X134.9 Y87.466 E23.43657
G1 X134.906 Y87.466 E23.43685
G1 X135.78 Y87.489 E23.47756
G1 X135.848 Y87.491 E23.48073
G1 X136.512 Y87.517 E23.51167
G1 X136.965 Y87.554 E23.53284
G1 X137.37 Y87.605 E23.55185
G1 X138.008 Y87.726 E23.58208
G1 X138.384 Y87.836 E23.60032
G1 X138.752 Y87.959 E23.61839
G1 X139.354 Y88.203 E23.64864
G1 X139.693 Y88.38 E23.66645
G1 X140.028 Y88.571 E23.6844
G1 X140.572 Y88.927 E23.71468
G1 X140.839 Y89.14 E23.73058
G1 X141.029 Y89.302 E23.74221
G1 X141.472 Y89.727 E23.77079
G1 X141.694 Y89.966 E23.78598
G1 X142.075 Y90.426 E23.81379
G1 X142.204 Y90.601 E23.82392
G1 X142.668 Y91.355 E23.86514
G1 X142.831 Y91.678 E23.88199
G1 X143.162 Y92.501 E23.92329
G1 X143.224 Y92.702 E23.93309
G1 X143.336 Y93.127 E23.95355
G1 X143.395 Y93.396 E23.96638
G1 X143.495 Y94.038 E23.99663
G1 X143.518 Y94.515 E24.01887
G1 X143.521 Y95.797 E24.07856
G1 X143.519 Y95.942 E24.08532
G1 X143.01 Y116.205 E25.02914
G1 X143.008 Y116.277 E25.0325
G1 X142.979 Y117.024 E25.06731
G1 X142.943 Y117.466 E25.08796
G1 X142.894 Y117.863 E25.10658
G1 X142.775 Y118.501 E25.1368
G1 X142.676 Y118.847 E25.15356
G1 X142.612 Y119.044 E25.16321
G1 X142.556 Y119.207 E25.17123
G1 X142.487 Y119.398 E25.18069
G1 X142.104 Y120.227 E25.22321
G1 X141.922 Y120.545 E25.24027
G1 X141.565 Y121.088 E25.27053
G1 X141.336 Y121.372 E25.28752
G1 X141.077 Y121.672 E25.30597
G1 X140.623 Y122.137 E25.33624
G1 X140.357 Y122.362 E25.35246
G1 X140.189 Y122.495 E25.36244
G1 X139.804 Y122.772 E25.38452
G1 X139.552 Y122.937 E25.39855
G1 X138.964 Y123.271 E25.43004
G1 X138.733 Y123.383 E25.44199
G1 X137.88 Y123.709 E25.48451
G1 X137.635 Y123.779 E25.49638
G1 X137.183 Y123.887 E25.51801
G1 X136.934 Y123.935 E25.52982
G1 X136.29 Y124.018 E25.56006
G1 X135.931 Y124.03 E25.57678
G1 X134.602 Y124.029 E25.63867
G1 X134.473 Y124.027 E25.64468
G1 X75.1 Y122.534 E28.4102
G1 X75.094 Y122.534 E28.41048
G1 X74.22 Y122.511 E28.4512
G1 X74.152 Y122.509 E28.45436
G1 X73.488 Y122.483 E28.48531
G1 X73.035 Y122.446 E28.50647
G1 X72.63 Y122.395 E28.52548
G1 X71.992 Y122.274 E28.55571
G1 X71.616 Y122.164 E28.57396
G1 X71.248 Y122.041 E28.59202
G1 X70.646 Y121.797 E28.62227
G1 X70.304 Y121.618 E28.64024
G1 X69.966 Y121.425 E28.65837
G1 X69.423 Y121.069 E28.6886
G1 X69.151 Y120.852 E28.7048
G1 X68.964 Y120.692 E28.71626
G1 X68.529 Y120.274 E28.74436
G1 X68.306 Y120.034 E28.75961
G1 X67.938 Y119.591 E28.78643
G1 X67.816 Y119.427 E28.79595
G1 X67.338 Y118.653 E28.8383
G1 X67.162 Y118.304 E28.85651
G1 X66.905 Y117.708 E28.88673
G1 X66.787 Y117.335 E28.90494
G1 X66.681 Y116.952 E28.92345
G1 X66.547 Y116.317 E28.95367
G1 X66.506 Y115.954 E28.97068
G1 X66.488 Y115.723 E28.98147
G1 X66.472 Y115.281 E29.00206
G1 X66.479 Y114.121 E29.05608
G1 X66.481 Y114.02 E29.06078
G1 X66.99 Y93.777 E30.00368
G1 X66.992 Y93.701 E30.00722
G1 X67.021 Y92.969 E30.04133
G1 X67.058 Y92.52 E30.06231
G1 X67.108 Y92.122 E30.08099
G1 X67.229 Y91.484 E30.11122
G1 X67.326 Y91.148 E30.12751
G1 X67.391 Y90.948 E30.1373
G1 X67.474 Y90.711 E30.14899
G1 X67.555 Y90.497 E30.15965
G1 X67.934 Y89.703 E30.20062
G1 X68.104 Y89.412 E30.21631
G1 X68.667 Y88.624 E30.26141
G1 X68.914 Y88.338 E30.279
G1 X69.589 Y87.684 E30.32277
G1 X69.767 Y87.54 E30.33343
M204 S3000
M205 X10 Y10
G1 F2400 E24.33343
;MESH:e040c347-fd27-476f-935b-d48e6c3074fd.stl
G0 F3000 X73.861 Y90.593
G0 X74.348 Y92.084
G0 X136.211 Y94.182
M204 S1800
M205 X8 Y8
;TYPE:WALL-INNER
G1 F2400 E30.33343
G1 F1500 X136.401 Y94.207 E30.34235
G1 X136.516 Y94.245 E30.34799
G1 X136.609 Y94.299 E30.353
G1 X136.696 Y94.375 E30.35838
G1 X136.772 Y94.473 E30.36415
G1 X136.822 Y94.575 E30.36944
G1 X136.852 Y94.683 E30.37466
G1 X136.864 Y94.864 E30.38311
G1 X136.316 Y116.724 E31.40132
G1 X136.292 Y116.906 E31.40987
G1 X136.254 Y117.019 E31.41542
G1 X136.195 Y117.122 E31.42095
G1 X136.122 Y117.206 E31.42613
G1 X136.024 Y117.282 E31.4319
G1 X135.928 Y117.329 E31.43688
G1 X135.806 Y117.362 E31.44276
G1 X135.635 Y117.374 E31.45075
G1 X75.268 Y115.856 E34.26258
G1 X73.789 Y115.818 E34.33147
G1 X73.599 Y115.793 E34.34039
G1 X73.484 Y115.755 E34.34603
G1 X73.391 Y115.701 E34.35104
G1 X73.304 Y115.625 E34.35642
G1 X73.228 Y115.527 E34.36219
G1 X73.178 Y115.425 E34.36748
G1 X73.148 Y115.318 E34.37266
G1 X73.136 Y115.134 E34.38124
G1 X73.685 Y93.287 E35.39885
G1 X73.711 Y93.085 E35.40833
G1 X73.747 Y92.979 E35.41355
G1 X73.804 Y92.879 E35.41891
G1 X73.878 Y92.794 E35.42415
G1 X73.976 Y92.718 E35.42993
G1 X74.072 Y92.671 E35.43491
G1 X74.194 Y92.638 E35.44079
G1 X74.365 Y92.626 E35.44877
G1 X134.732 Y94.144 E38.2606
G1 X136.211 Y94.182 E38.32949
M204 S3000
M205 X10 Y10
G0 F3000 X136.247 Y93.623
M204 S1800
M205 X8 Y8
G1 F1500 X136.529 Y93.659 E38.34273
G1 X136.744 Y93.731 E38.35329
G1 X136.937 Y93.842 E38.36366
G1 X137.107 Y93.991 E38.37418
G1 X137.248 Y94.173 E38.3849
G1 X137.348 Y94.375 E38.3954
G1 X137.407 Y94.591 E38.40582
G1 X137.425 Y94.85 E38.41791
G1 X136.875 Y116.76 E39.43846
G1 X136.84 Y117.034 E39.45132
G1 X136.766 Y117.252 E39.46204
G1 X136.655 Y117.447 E39.47249
G1 X136.506 Y117.617 E39.48301
G1 X136.324 Y117.758 E39.49373
G1 X136.126 Y117.856 E39.50402
G1 X135.898 Y117.917 E39.51501
G1 X135.652 Y117.935 E39.5265
G1 X75.254 Y116.416 E42.33977
G1 X73.753 Y116.377 E42.40969
G1 X73.471 Y116.341 E42.42292
G1 X73.256 Y116.269 E42.43348
G1 X73.063 Y116.158 E42.44385
G1 X72.893 Y116.009 E42.45437
G1 X72.752 Y115.827 E42.46509
G1 X72.652 Y115.625 E42.47559
G1 X72.593 Y115.41 E42.48597
G1 X72.575 Y115.147 E42.49825
G1 X73.126 Y93.243 E43.51851
G1 X73.162 Y92.958 E43.53189
G1 X73.233 Y92.751 E43.54208
G1 X73.345 Y92.553 E43.55267
G1 X73.494 Y92.383 E43.5632
G1 X73.676 Y92.242 E43.57392
G1 X73.874 Y92.144 E43.5842
G1 X74.102 Y92.083 E43.59519
G1 X74.348 Y92.065 E43.60668
G1 X134.746 Y93.584 E46.41995
G1 X136.247 Y93.623 E46.48987
M204 S3000
M205 X10 Y10
G0 F3000 X136.293 Y93.064
M204 S1800
M205 X8 Y8
;TYPE:WALL-OUTER
G1 F1500 X136.654 Y93.11 E46.50681
G1 X136.972 Y93.217 E46.52244
G1 X137.264 Y93.384 E46.5381
G1 X137.516 Y93.605 E46.55371
G1 X137.725 Y93.876 E46.56964
G1 X137.873 Y94.173 E46.58509
G1 X137.962 Y94.5 E46.60088
G1 X137.986 Y94.834 E46.61647
G1 X137.434 Y116.796 E47.63943
G1 X137.387 Y117.164 E47.65671
G1 X137.28 Y117.481 E47.67229
G1 X137.113 Y117.773 E47.68795
G1 X136.892 Y118.026 E47.70359
G1 X136.621 Y118.235 E47.71953
G1 X136.324 Y118.383 E47.73498
G1 X135.997 Y118.471 E47.75075
G1 X135.659 Y118.496 E47.76653
G1 X75.24 Y116.976 E50.58078
G1 X73.707 Y116.936 E50.65219
G1 X73.346 Y116.89 E50.66913
G1 X73.028 Y116.783 E50.68476
G1 X72.736 Y116.616 E50.70042
G1 X72.484 Y116.395 E50.71603
G1 X72.275 Y116.124 E50.73196
G1 X72.127 Y115.827 E50.74742
G1 X72.038 Y115.5 E50.7632
G1 X72.014 Y115.163 E50.77893
G1 X72.567 Y93.197 E51.80208
G1 X72.613 Y92.835 E51.81907
G1 X72.72 Y92.519 E51.83461
G1 X72.887 Y92.227 E51.85027
G1 X73.108 Y91.974 E51.86591
G1 X73.379 Y91.765 E51.88185
G1 X73.676 Y91.617 E51.8973
G1 X74.003 Y91.529 E51.91307
