;FLAVOR:Marlin
;TIME:3997
;Filament used: 3.5501m
;Layer height: 0.2
;MINX:65.6
;MINY:85.6
;MINZ:0.2
;MAXX:144.4
;MAXY:124.4
;MAXZ:16
;Generated with Cura_SteamEngine 4.3.0
M140 S65
M105
M190 S65
M104 S220
M105
M109 S220
M82 ;absolute extrusion mode
G21 ;metric values
G90 ;absolute positioning
M82 ;set extruder to absolute mode
M107 ;start with the fan off
G28 X0 Y0 ;move X/Y to min endstops
G28 Z0 ;move Z to min endstops
G1 Z15.0 F100 ;move the platform down 15mm
G92 E0 ;zero the extruded length
G1 F200 E3 ;extrude 3mm of feed stock
G92 E0 ;zero the extruded length again
G1 F100
M117 Printing...
G5
G92 E0
G92 E0
G1 F2400 E-6
;LAYER_COUNT:80
;LAYER:0
M106 S255
M204 S3000
M205 X10 Y10
G1 F600 Z0.275
G0 F3000 X68.891 Y87.352 Z0.275
M204 S1800
M205 X8 Y8
;TYPE:SKIRT
G1 F600 Z0.2
G1 F2400 E0
G1 X69.474 Y86.938 E0.0333
G1 X69.795 Y86.748 E0.05066
G1 X69.996 Y86.637 E0.06136
G1 X70.495 Y86.389 E0.0873
G1 X70.752 Y86.275 E0.10039
G1 X71.563 Y85.979 E0.14059
G1 X71.818 Y85.905 E0.15296
G1 X72.836 Y85.697 E0.20134
G1 X73.06 Y85.67 E0.21185
G1 X73.699 Y85.625 E0.24167
G1 X74.906 Y85.601 E0.29789
G1 X75.033 Y85.6 E0.3038
G1 X134.905 Y85.6 E3.09169
G1 X134.998 Y85.601 E3.09602
G1 X135.897 Y85.614 E3.13789
G1 X136.191 Y85.625 E3.15159
G1 X136.769 Y85.66 E3.17855
G1 X137.479 Y85.743 E3.21184
G1 X138.215 Y85.916 E3.24704
G1 X138.603 Y86.032 E3.2659
G1 X139.276 Y86.275 E3.29922
G1 X139.837 Y86.547 E3.32825
G1 X140.174 Y86.731 E3.34613
G1 X140.782 Y87.108 E3.37944
G1 X141.101 Y87.347 E3.398
G1 X141.265 Y87.478 E3.40777
G1 X141.626 Y87.789 E3.42996
G1 X141.822 Y87.971 E3.44242
G1 X142.456 Y88.652 E3.48574
G1 X142.636 Y88.876 E3.49912
G1 X143.052 Y89.458 E3.53243
G1 X143.239 Y89.772 E3.54945
G1 X143.347 Y89.966 E3.55979
G1 X143.593 Y90.457 E3.58536
G1 X143.712 Y90.722 E3.59889
G1 X144.02 Y91.557 E3.64033
G1 X144.095 Y91.815 E3.65284
G1 X144.256 Y92.512 E3.68615
G1 X144.309 Y92.885 E3.70369
G1 X144.332 Y93.089 E3.71325
G1 X144.362 Y93.441 E3.7297
G1 X144.38 Y93.756 E3.7444
G1 X144.386 Y93.906 E3.75139
G1 X144.395 Y94.174 E3.76387
G1 X144.399 Y94.389 E3.77388
G1 X144.4 Y115.087 E4.73767
G1 X144.399 Y115.177 E4.74186
G1 X144.392 Y115.677 E4.76515
G1 X144.387 Y115.875 E4.77437
G1 X144.357 Y116.542 E4.80546
G1 X144.285 Y117.253 E4.83873
G1 X144.188 Y117.739 E4.86181
G1 X144.078 Y118.2 E4.88388
G1 X143.874 Y118.886 E4.91721
G1 X143.554 Y119.624 E4.95466
G1 X143.355 Y120.014 E4.97505
G1 X142.995 Y120.632 E5.00835
G1 X142.649 Y121.107 E5.03572
G1 X142.52 Y121.268 E5.04532
G1 X142.205 Y121.631 E5.0677
G1 X142.011 Y121.839 E5.08095
G1 X141.329 Y122.472 E5.12427
G1 X141.109 Y122.648 E5.13739
G1 X140.526 Y123.062 E5.17069
G1 X140.205 Y123.252 E5.18806
G1 X140.004 Y123.363 E5.19875
G1 X139.124 Y123.766 E5.24382
G1 X138.614 Y123.954 E5.26913
G1 X137.93 Y124.163 E5.30243
G1 X137.096 Y124.311 E5.34187
G1 X136.84 Y124.339 E5.35386
G1 X136.272 Y124.376 E5.38037
G1 X135.171 Y124.398 E5.43165
G1 X135.043 Y124.399 E5.43761
G1 X75.038 Y124.4 E8.23169
G1 X74.95 Y124.399 E8.23579
G1 X74.146 Y124.388 E8.27323
G1 X73.961 Y124.383 E8.28185
G1 X73.75 Y124.374 E8.29168
G1 X73.592 Y124.365 E8.29905
G1 X73.207 Y124.339 E8.31702
G1 X72.497 Y124.251 E8.35033
G1 X71.86 Y124.102 E8.38079
G1 X71.452 Y123.984 E8.40057
G1 X70.777 Y123.747 E8.43388
G1 X70.163 Y123.453 E8.46558
G1 X69.826 Y123.269 E8.48346
G1 X69.218 Y122.892 E8.51677
G1 X68.899 Y122.653 E8.53533
G1 X68.735 Y122.522 E8.54511
G1 X68.533 Y122.353 E8.55737
G1 X68.381 Y122.221 E8.56674
G1 X67.868 Y121.723 E8.60004
G1 X67.616 Y121.432 E8.61796
G1 X67.387 Y121.151 E8.63484
G1 X66.967 Y120.572 E8.66815
G1 X66.736 Y120.185 E8.68913
G1 X66.617 Y119.968 E8.70066
G1 X66.368 Y119.463 E8.72687
G1 X66.264 Y119.226 E8.73893
G1 X65.98 Y118.443 E8.77771
G1 X65.904 Y118.182 E8.79037
G1 X65.743 Y117.485 E8.82368
G1 X65.691 Y117.125 E8.84062
G1 X65.666 Y116.908 E8.85079
G1 X65.625 Y116.302 E8.87907
G1 X65.601 Y115.088 E8.93561
G1 X65.6 Y114.962 E8.94148
G1 X65.6 Y94.839 E9.87849
G1 X65.601 Y94.748 E9.88272
G1 X65.611 Y94.048 E9.91532
G1 X65.626 Y93.681 E9.93243
G1 X65.664 Y93.151 E9.95717
G1 X65.755 Y92.442 E9.99045
G1 X65.933 Y91.721 E10.02503
G1 X66.05 Y91.342 E10.0435
G1 X66.299 Y90.672 E10.07679
G1 X66.536 Y90.184 E10.10205
G1 X66.72 Y89.844 E10.12005
G1 X67.095 Y89.235 E10.15335
G1 X67.369 Y88.87 E10.1746
G1 X67.503 Y88.704 E10.18454
G1 X67.818 Y88.342 E10.20688
G1 X68.004 Y88.144 E10.21953
G1 X68.671 Y87.528 E10.26181
G1 X68.891 Y87.352 E10.27493
M204 S3000
M205 X10 Y10
G0 F3000 X69.241 Y87.79
M204 S1800
M205 X8 Y8
G1 F2400 X70.066 Y87.238 E10.32115
G1 X70.267 Y87.127 E10.33184
G1 X70.722 Y86.901 E10.3555
G1 X70.979 Y86.787 E10.36859
G1 X71.719 Y86.516 E10.40528
G1 X71.974 Y86.442 E10.41765
G1 X72.903 Y86.253 E10.46179
G1 X73.127 Y86.226 E10.4723
G1 X73.71 Y86.185 E10.49951
G1 X74.917 Y86.161 E10.55573
G1 X75.033 Y86.16 E10.56113
G1 X134.905 Y86.16 E13.34902
G1 X134.989 Y86.161 E13.35293
G1 X135.888 Y86.174 E13.3948
G1 X136.157 Y86.184 E13.40733
G1 X136.735 Y86.219 E13.43429
G1 X137.413 Y86.3 E13.46609
G1 X138.055 Y86.453 E13.49682
G1 X138.443 Y86.569 E13.51568
G1 X139.085 Y86.802 E13.54748
G1 X139.569 Y87.038 E13.57255
G1 X139.906 Y87.222 E13.59043
G1 X140.752 Y87.785 E13.63775
G1 X140.916 Y87.916 E13.64752
G1 X141.245 Y88.199 E13.66773
G1 X141.441 Y88.381 E13.68019
G1 X142.019 Y89.003 E13.71972
G1 X142.199 Y89.227 E13.73311
G1 X142.75 Y90.044 E13.77899
G1 X142.858 Y90.238 E13.78933
G1 X143.083 Y90.687 E13.81272
G1 X143.202 Y90.952 E13.82624
G1 X143.482 Y91.714 E13.86404
G1 X143.557 Y91.972 E13.87655
G1 X143.752 Y92.948 E13.9229
G1 X143.775 Y93.152 E13.93246
G1 X143.802 Y93.473 E13.94746
G1 X143.82 Y93.788 E13.96215
G1 X143.827 Y93.925 E13.96854
G1 X143.836 Y94.193 E13.98102
G1 X143.839 Y94.389 E13.99015
G1 X143.84 Y115.087 E14.95394
G1 X143.839 Y115.169 E14.95776
G1 X143.832 Y115.669 E14.98104
G1 X143.827 Y115.849 E14.98943
G1 X143.797 Y116.516 E15.02051
G1 X143.727 Y117.196 E15.05235
G1 X143.644 Y117.609 E15.07196
G1 X143.534 Y118.07 E15.09403
G1 X143.336 Y118.725 E15.12589
G1 X143.055 Y119.369 E15.15861
G1 X142.856 Y119.759 E15.179
G1 X142.51 Y120.349 E15.21085
G1 X142.212 Y120.757 E15.23437
G1 X142.083 Y120.918 E15.24398
G1 X141.796 Y121.249 E15.26438
G1 X141.602 Y121.457 E15.27762
G1 X140.979 Y122.034 E15.31716
G1 X140.759 Y122.21 E15.33028
G1 X139.934 Y122.762 E15.3765
G1 X139.733 Y122.873 E15.38719
G1 X138.93 Y123.241 E15.42833
G1 X138.42 Y123.429 E15.45364
G1 X137.766 Y123.627 E15.48545
G1 X137.035 Y123.754 E15.52
G1 X136.779 Y123.782 E15.53199
G1 X136.261 Y123.816 E15.55617
G1 X135.16 Y123.838 E15.60744
G1 X135.043 Y123.839 E15.61289
G1 X75.038 Y123.84 E18.40698
G1 X74.958 Y123.839 E18.4107
G1 X74.154 Y123.828 E18.44814
G1 X73.985 Y123.824 E18.45601
G1 X73.774 Y123.815 E18.46585
G1 X73.63 Y123.807 E18.47256
G1 X73.245 Y123.781 E18.49053
G1 X72.567 Y123.695 E18.52235
G1 X72.015 Y123.564 E18.54877
G1 X71.607 Y123.446 E18.56855
G1 X70.963 Y123.218 E18.60036
G1 X70.431 Y122.962 E18.62785
G1 X70.094 Y122.778 E18.64573
G1 X69.248 Y122.215 E18.69305
G1 X69.084 Y122.084 E18.70282
G1 X68.9 Y121.93 E18.71399
G1 X68.748 Y121.798 E18.72337
G1 X68.05 Y121.078 E18.77006
G1 X67.821 Y120.797 E18.78694
G1 X67.421 Y120.243 E18.81876
G1 X67.227 Y119.916 E18.83647
G1 X67.108 Y119.699 E18.84799
G1 X66.881 Y119.238 E18.87192
G1 X66.777 Y119.001 E18.88397
G1 X66.518 Y118.287 E18.91933
G1 X66.442 Y118.026 E18.93199
G1 X66.247 Y117.061 E18.97784
G1 X66.222 Y116.844 E18.98801
G1 X66.185 Y116.291 E19.01381
G1 X66.161 Y115.077 E19.07035
G1 X66.16 Y114.962 E19.07571
G1 X66.16 Y94.839 E20.01272
G1 X66.161 Y94.756 E20.01659
G1 X66.171 Y94.056 E20.04918
G1 X66.185 Y93.721 E20.0648
G1 X66.223 Y93.191 E20.08954
G1 X66.312 Y92.514 E20.12133
G1 X66.468 Y91.886 E20.15146
G1 X66.585 Y91.507 E20.16993
G1 X66.824 Y90.867 E20.20175
G1 X67.029 Y90.45 E20.22338
G1 X67.213 Y90.11 E20.24138
G1 X67.573 Y89.53 E20.27317
G1 X67.805 Y89.222 E20.29113
G1 X67.939 Y89.056 E20.30106
G1 X68.227 Y88.725 E20.32149
G1 X68.413 Y88.527 E20.33414
G1 X69.021 Y87.966 E20.37266
G1 X69.241 Y87.79 E20.38578
M204 S3000
M205 X10 Y10
G0 F3000 X69.591 Y88.227
M204 S1800
M205 X8 Y8
G1 F2400 X70.337 Y87.728 E20.42757
G1 X70.538 Y87.617 E20.43826
G1 X70.949 Y87.413 E20.45963
G1 X71.206 Y87.299 E20.47272
G1 X71.875 Y87.054 E20.5059
G1 X72.13 Y86.98 E20.51826
G1 X72.97 Y86.809 E20.55818
G1 X73.194 Y86.782 E20.56868
G1 X73.721 Y86.745 E20.59328
G1 X74.928 Y86.721 E20.64949
G1 X75.033 Y86.72 E20.65438
G1 X134.905 Y86.72 E23.44228
G1 X134.981 Y86.721 E23.44581
G1 X135.88 Y86.734 E23.48768
G1 X136.123 Y86.743 E23.499
G1 X136.701 Y86.778 E23.52597
G1 X137.346 Y86.857 E23.55622
G1 X137.894 Y86.989 E23.58247
G1 X138.282 Y87.105 E23.60133
G1 X138.892 Y87.329 E23.63159
G1 X139.3 Y87.53 E23.65277
G1 X139.637 Y87.714 E23.67064
G1 X140.402 Y88.223 E23.71343
G1 X140.566 Y88.354 E23.7232
G1 X140.864 Y88.61 E23.7415
G1 X141.06 Y88.792 E23.75395
G1 X141.583 Y89.354 E23.7897
G1 X141.763 Y89.578 E23.80308
G1 X142.26 Y90.317 E23.84455
G1 X142.368 Y90.511 E23.85489
G1 X142.572 Y90.916 E23.876
G1 X142.691 Y91.181 E23.88953
G1 X142.944 Y91.87 E23.92371
G1 X143.019 Y92.128 E23.93622
G1 X143.196 Y93.01 E23.97811
G1 X143.219 Y93.214 E23.98767
G1 X143.243 Y93.505 E24.00126
G1 X143.261 Y93.82 E24.01595
G1 X143.267 Y93.944 E24.02174
G1 X143.276 Y94.212 E24.03422
G1 X143.279 Y94.389 E24.04246
G1 X143.28 Y115.087 E25.00625
G1 X143.279 Y115.161 E25.0097
G1 X143.272 Y115.661 E25.03298
G1 X143.268 Y115.824 E25.04057
G1 X143.238 Y116.491 E25.07166
G1 X143.169 Y117.137 E25.10191
G1 X143.099 Y117.479 E25.11817
G1 X142.989 Y117.94 E25.14024
G1 X142.799 Y118.562 E25.17052
G1 X142.556 Y119.115 E25.19865
G1 X142.357 Y119.505 E25.21904
G1 X142.027 Y120.064 E25.24926
G1 X141.774 Y120.407 E25.26911
G1 X141.645 Y120.568 E25.27872
G1 X141.386 Y120.867 E25.29714
G1 X141.192 Y121.075 E25.31038
G1 X140.629 Y121.597 E25.34613
G1 X140.409 Y121.773 E25.35925
G1 X139.663 Y122.272 E25.40104
G1 X139.462 Y122.383 E25.41173
G1 X138.736 Y122.715 E25.4489
G1 X138.226 Y122.903 E25.47421
G1 X137.604 Y123.09 E25.50446
G1 X136.974 Y123.198 E25.53422
G1 X136.718 Y123.226 E25.54621
G1 X136.249 Y123.256 E25.5681
G1 X135.148 Y123.278 E25.61937
G1 X135.043 Y123.279 E25.62426
G1 X75.038 Y123.28 E28.41835
G1 X74.966 Y123.28 E28.4217
G1 X74.162 Y123.269 E28.45914
G1 X74.009 Y123.264 E28.46627
G1 X73.798 Y123.255 E28.4761
G1 X73.667 Y123.248 E28.48221
G1 X73.282 Y123.222 E28.50018
G1 X72.638 Y123.138 E28.53042
G1 X72.171 Y123.026 E28.55278
G1 X71.763 Y122.908 E28.57256
G1 X71.151 Y122.69 E28.60281
G1 X70.7 Y122.47 E28.62618
G1 X70.363 Y122.286 E28.64406
G1 X69.598 Y121.777 E28.68684
G1 X69.434 Y121.646 E28.69662
G1 X69.267 Y121.508 E28.7067
G1 X69.115 Y121.376 E28.71608
G1 X68.484 Y120.725 E28.75829
G1 X68.255 Y120.444 E28.77517
G1 X67.718 Y119.647 E28.81992
G1 X67.599 Y119.43 E28.83145
G1 X67.394 Y119.013 E28.85308
G1 X67.29 Y118.776 E28.86513
G1 X67.056 Y118.13 E28.89713
G1 X66.98 Y117.869 E28.90979
G1 X66.804 Y116.997 E28.95121
G1 X66.779 Y116.78 E28.96138
G1 X66.745 Y116.28 E28.98472
G1 X66.721 Y115.066 E29.04126
G1 X66.72 Y114.962 E29.0461
G1 X66.72 Y94.839 E29.98311
G1 X66.721 Y94.764 E29.9866
G1 X66.731 Y94.064 E30.0192
G1 X66.744 Y93.761 E30.03332
G1 X66.782 Y93.231 E30.05806
G1 X66.868 Y92.588 E30.08827
G1 X67.003 Y92.052 E30.11401
G1 X67.12 Y91.673 E30.13248
G1 X67.349 Y91.065 E30.16273
G1 X67.521 Y90.717 E30.18081
G1 X67.705 Y90.377 E30.19881
G1 X68.241 Y89.574 E30.24376
G1 X68.375 Y89.408 E30.2537
G1 X68.635 Y89.109 E30.27215
G1 X68.821 Y88.911 E30.2848
G1 X69.371 Y88.403 E30.31966
G1 X69.591 Y88.227 E30.33278
M204 S3000
M205 X10 Y10
G1 F2400 E24.33278
G1 F600 Z0.275
G0 F3000 X78.992 Y108.254 Z0.275
M204 S1800
M205 X8 Y8
;TYPE:SUPPORT
G1 F600 Z0.2
G1 F2400 E30.33278
G1 F1500 X79.31 Y108.105 E30.34913
G1 X79.651 Y108.015 E30.36555
G1 X80 Y107.983 E30.38187
G1 X80.349 Y108.015 E30.39819
G1 X80.69 Y108.105 E30.41461
G1 X81.008 Y108.254 E30.43097
G1 X81.295 Y108.455 E30.44728
G1 X81.545 Y108.705 E30.46375
G1 X81.746 Y108.992 E30.48006
G1 X81.895 Y109.31 E30.49641
G1 X81.985 Y109.651 E30.51284
G1 X82.017 Y110 E30.52915
G1 X81.985 Y110.349 E30.54547
G1 X81.895 Y110.69 E30.5619
G1 X81.746 Y111.008 E30.57825
G1 X81.545 Y111.295 E30.59456
G1 X81.295 Y111.545 E30.61103
G1 X81.008 Y111.746 E30.62734
G1 X80.69 Y111.895 E30.64369
G1 X80.349 Y111.985 E30.66012
G1 X80 Y112.017 E30.67643
G1 X79.651 Y111.985 E30.69275
G1 X79.31 Y111.895 E30.70918
G1 X78.992 Y111.746 E30.72553
G1 X78.705 Y111.545 E30.74184
G1 X78.455 Y111.295 E30.75831
G1 X78.254 Y111.008 E30.77462
G1 X78.105 Y110.69 E30.79097
G1 X78.015 Y110.349 E30.8074
G1 X77.983 Y110 E30.82372
G1 X78.015 Y109.651 E30.84003
G1 X78.105 Y109.31 E30.85646
G1 X78.254 Y108.992 E30.87281
G1 X78.455 Y108.705 E30.88912
G1 X78.705 Y108.455 E30.90559
G1 X78.992 Y108.254 E30.9219
M204 S3000
M205 X10 Y10
G0 F3000 X80 Y108.204
M204 S1800
M205 X8 Y8
G1 F1500 X80 Y111.796 E31.08916
M204 S3000
M205 X10 Y10
G0 F3000 X81.041 Y111.452
M204 S1800
M205 X8 Y8
G1 F1500 X78.219 Y109.823 E31.24089
M204 S3000
M205 X10 Y10
G0 F3000 X78.956 Y111.453
M204 S1800
M205 X8 Y8
G1 F1500 X81.778 Y109.824 E31.39261
M204 S3000
M205 X10 Y10
G1 F2400 E25.39261
G1 F600 Z0.275
G0 F3000 X128.015 Y100.349 Z0.275
M204 S1800
M205 X8 Y8
G1 F600 Z0.2
G1 F2400 E31.39261
G1 F1500 X127.983 Y100 E31.40893
G1 X128.015 Y99.651 E31.42525
G1 X128.105 Y99.31 E31.44167
G1 X128.254 Y98.992 E31.45803
G1 X128.455 Y98.705 E31.47434
G1 X128.705 Y98.455 E31.4908
G1 X128.992 Y98.254 E31.50712
G1 X129.31 Y98.105 E31.52347
G1 X129.651 Y98.015 E31.53989
G1 X130 Y97.983 E31.55621
G1 X130.349 Y98.015 E31.57253
G1 X130.69 Y98.105 E31.58895
G1 X131.008 Y98.254 E31.60531
G1 X131.295 Y98.455 E31.62162
G1 X131.545 Y98.705 E31.63808
G1 X131.746 Y98.992 E31.6544
G1 X131.895 Y99.31 E31.67075
G1 X131.985 Y99.651 E31.68717
G1 X132.017 Y100 E31.70349
G1 X131.985 Y100.349 E31.71981
G1 X131.895 Y100.69 E31.73623
G1 X131.746 Y101.008 E31.75259
G1 X131.545 Y101.295 E31.7689
G1 X131.295 Y101.545 E31.78537
G1 X131.008 Y101.746 E31.80168
G1 X130.69 Y101.895 E31.81803
G1 X130.349 Y101.985 E31.83445
G1 X130 Y102.017 E31.85077
G1 X129.651 Y101.985 E31.86709
G1 X129.31 Y101.895 E31.88352
G1 X128.992 Y101.746 E31.89987
G1 X128.705 Y101.545 E31.91618
G1 X128.455 Y101.295 E31.93265
G1 X128.254 Y101.008 E31.94896
G1 X128.105 Y100.69 E31.96531
G1 X128.015 Y100.349 E31.98174
M204 S3000
M205 X10 Y10
G0 F3000 X128.687 Y101.216
M204 S1800
M205 X8 Y8
G1 F1500 X131.708 Y99.472 E32.14416
M204 S3000
M205 X10 Y10
G1 F2400 E26.14416
;MESH:00514bbd-7d4e-4987-a6bf-dfb4fea6f5a8.stl
G0 F3000 X127.981 Y98.832
G0 X126.672 Y98.078
G0 X125.661 Y99.234
M204 S1800
M205 X8 Y8
;TYPE:WALL-INNER
G1 F2400 E32.14416
G1 F1500 X125.595 Y100 E32.17996
G1 X125.661 Y100.766 E32.21576
G1 X125.861 Y101.506 E32.25146
G1 X126.185 Y102.203 E32.28725
G1 X126.625 Y102.831 E32.32295
G1 X127.169 Y103.375 E32.35878
G1 X127.797 Y103.815 E32.39448
G1 X128.494 Y104.139 E32.43027
G1 X129.234 Y104.339 E32.46597
G1 X130 Y104.405 E32.50177
G1 X130.766 Y104.339 E32.53757
G1 X131.506 Y104.139 E32.57326
G1 X132.203 Y103.815 E32.60905
G1 X132.831 Y103.375 E32.64476
G1 X133.375 Y102.831 E32.68058
G1 X133.815 Y102.203 E32.71629
G1 X134.139 Y101.506 E32.75208
G1 X134.339 Y100.766 E32.78777
G1 X134.405 Y100 E32.82357
G1 X134.339 Y99.234 E32.85937
G1 X134.139 Y98.494 E32.89506
G1 X133.815 Y97.797 E32.93086
G1 X133.375 Y97.169 E32.96656
G1 X132.831 Y96.625 E33.00238
G1 X132.203 Y96.185 E33.03809
G1 X131.506 Y95.861 E33.07388
G1 X130.766 Y95.661 E33.10957
